web/images/products-nav/labs-logo-dark.svg

<svg height="45" viewBox="0 0 325 45" width="325" xmlns="http://www.w3.org/2000/svg"><g fill="#4a4a4a" fill-rule="evenodd"><path d="m46.3273381 5.04310345c1.0359713 0 1.8129497-.77586207 1.8129497-1.81034483s-.7769784-1.81034483-1.8129497-1.81034483c-1.0359712 0-1.8129496.77586207-1.8129496 1.81034483s.7769784 1.81034483 1.8129496 1.81034483zm24.086331-4.9137931v13.44827585h-.1294964c-2.3309353-3.362069-5.3093526-4.78448275-8.676259-4.78448275-7.7697842 0-12.3021583 5.56034485-12.3021583 13.18965515 0 7.5 4.7913669 13.1896552 12.3021583 13.1896552 7.7697841 0 12.3021582-5.5603448 12.3021582-13.1896552v-21.72413791zm-8.8057554 31.42241375c-5.5683454 0-8.8057554-4.0086207-8.8057554-9.5689655s2.9784172-9.5689655 8.8057554-9.5689655c4.7913669 0 8.8057554 4.0086207 8.8057554 9.5689655s-3.1079137 9.5689655-8.8057554 9.5689655zm-17.0935252 3.4913793h3.4964029v-26.24999995h-3.4964029zm-4.7913669 0h3.4964029v-34.91379305h-3.4964029zm-13.4676259-26.24999995c-7.5107914 0-12.3021583 5.56034485-12.3021583 13.18965515v.2586207c-1.294964-.7758621-2.8489209-1.2931034-4.53237409-1.9396552-4.01438849-1.2931034-5.30935252-2.3275862-5.30935252-4.525862 0-2.974138 2.71942446-4.2672414 5.30935252-4.2672414 1.81294959 0 3.62589929.6465517 4.53237409 2.3275862l2.4604317-2.0689655c-1.8129497-2.19827588-4.1438849-2.97413795-6.99280579-2.97413795-4.4028777 0-8.54676259 2.45689655-8.54676259 7.24137935 0 4.137931 2.71942446 5.6896551 6.21582734 6.8534482 4.40287774 1.4224138 6.47482014 2.0689656 6.47482014 5.0431035 0 2.8448276-2.8489209 4.3965517-5.43884892 4.3965517-2.20143885 0-4.27338129-.9051724-5.30935252-2.8448276l-2.58992805 2.0689655c1.81294964 2.5862069 4.9208633 3.4913793 7.76978417 3.4913793 3.62589932 0 7.12230212-1.5517241 8.28776982-4.6551724 2.2014388 2.8448276 5.5683453 4.6551724 9.971223 4.6551724 7.7697842 0 12.3021583-5.5603448 12.3021583-13.1896551 0-7.5-4.7913669-13.06034485-12.3021583-13.06034485zm0 22.75862065c-5.8273381 0-8.8057554-4.0086207-8.8057554-9.5689655s3.2374101-9.5689655 8.8057554-9.5689655 8.8057554 4.0086207 8.8057554 9.5689655-2.9784173 9.5689655-8.8057554 9.5689655z"/><path d="m160.284173 21.2068966c0-6.8534483-4.402878-12.41379315-12.043166-12.5431035-3.23741 0-6.086331 1.16379311-8.28777 3.1034483v-2.06896554h-7.122302v-6.72413793h-3.496403v6.72413793h-5.568345v2.06896554c-2.071942-1.93965519-4.920863-3.1034483-8.417266-3.1034483-3.366907 0-6.215827 1.16379311-8.28777 3.1034483v-2.06896554h-7.1223021v-6.72413793h-3.7553957v6.72413793h-4.9208633c-1.294964-.64655172-2.7194244-.77586207-4.2733813-.77586207-4.4028777 0-8.5467626 2.45689651-8.5467626 7.24137931 0 4.137931 2.7194245 5.6896552 6.2158274 6.8534483 4.4028777 1.4224138 6.4748201 2.0689655 6.4748201 5.0431034 0 2.8448276-2.8489208 4.3965518-5.4388489 4.3965518-2.2014388 0-4.2733813-.9051725-5.3093525-2.8448276l-2.5899281 2.0689655c1.6834533 2.4568965 4.7913669 3.4913793 7.6402878 3.4913793 4.5323741 0 8.8057554-2.3275862 8.8057554-7.2413793s-3.6258993-6.2068966-7.5107914-7.3706897c-4.0143885-1.2931034-5.3093525-2.3275862-5.3093525-4.525862 0-2.974138 2.7194245-4.1379311 5.3093525-4.1379311 1.8129497 0 3.6258993.6465517 4.5323741 2.3275862l1.1654677-1.0344827h3.7553956v15.2586207c0 4.9137931 2.9784173 6.9827586 7.6402878 6.9827586 2.071942 0 3.884892-.3879311 5.697842-1.1637931 1.553957.775862 3.496403 1.1637931 5.568345 1.1637931 3.366907 0 6.345324-1.4224138 8.676259-4.7844828h.129496v4.3965517h3.496403v-13.1896551c0-3.6206897-1.035971-6.724138-2.848921-9.0517242h4.661871v15.2586207c0 4.9137931 2.978417 6.9827586 7.640288 6.9827586 2.071942 0 4.014388-.387931 5.827338-1.2931034 1.683453.7758621 3.625899 1.2931034 5.827338 1.2931034 4.143885 0 7.769784-1.5517241 10.748201-5.3017241l-2.719424-2.1982759c-1.42446 2.1982759-4.273381 4.2672414-8.028777 4.2672414-4.920863 0-8.805755-4.0086207-9.194245-8.9224138h20.848921zm-59.438849 9.4396551c-.776979-.775862-1.1654679-1.9396551-1.1654679-3.4913793v-14.3534483h6.2158269c-1.942446 2.3275862-2.978417 5.4310345-2.978417 9.0517242 0 3.8793103 1.165468 7.2413793 3.496403 9.6982758-.776978.2586207-1.553957.2586207-2.460432.2586207-1.165467 0-2.330935-.387931-3.107913-1.1637931zm14.3741.9051724c-5.827338 0-8.805755-4.0086207-8.805755-9.5689655s3.23741-9.5689655 8.805755-9.5689655c5.827339 0 8.805756 4.0086207 8.805756 9.5689655s-4.143885 9.5689655-8.805756 9.5689655zm24.345324 0c-.776978.2586207-1.683453.3879311-2.589928.3879311-1.165467 0-2.201439-.3879311-2.978417-1.2931035-.776979-.775862-1.165468-1.9396551-1.165468-3.4913793v-14.3534483h6.215828c-2.071943 2.3275862-3.23741 5.4310345-3.23741 9.0517242-.129497 3.8793103 1.294964 7.2413793 3.755395 9.6982758zm-.129496-11.5086207c0-4.137931 4.143885-8.0172413 8.805755-8.0172413 5.05036 0 8.158274 3.2327586 8.158274 8.0172413z"/><path d="m248.341727 8.79310345c-3.755396 0-6.733813 1.29310345-8.805756 3.36206895v-3.36206895h-3.496403v14.48275865c0 5.5603448-2.071942 8.6637931-7.381295 8.6637931-5.309352 0-7.381295-3.1034483-7.381295-8.6637931v-14.48275865h-3.496402v7.11206895c-1.942447-4.2672414-5.827339-7.11206895-11.136691-7.11206895-2.719425 0-5.179856.77586207-7.122302 2.19827585l.388489-1.81034482c-.776978-.25862069-1.553957-.25862069-2.589928-.25862069-3.23741 0-7.640288.90517242-9.971223 5.17241381-2.071943-3.2327586-5.568345-5.17241381-10.10072-5.17241381-7.510791 0-12.302158 5.56034481-12.302158 13.18965521 0 7.5 4.532374 13.1896551 12.302158 13.1896551 3.366907 0 6.345324-1.4224138 8.676259-4.7844827h.129497v.2586207c0 6.3362069-4.402878 10.2155172-9.453238 10.2155172-3.755395 0-6.604316-2.0689655-8.028777-4.2672414l-2.719424 2.1982759c2.978417 3.75 6.604317 5.3017241 10.748201 5.3017241 7.122303 0 12.820144-4.6551724 12.949641-13.3189655v-10.3448276c0-4.0086207 1.683453-8.0172414 7.640287-8.0172414h.776979c-2.201439 2.3275863-3.496403 5.6896552-3.496403 9.5689656 0 7.5 4.532374 13.1896551 12.302158 13.1896551 5.697842 0 9.582734-2.9741379 11.266187-7.3706896.906475 4.7844827 4.402878 7.3706896 10.748202 7.3706896 3.107913 0 5.568345-.6465517 7.381295-1.9396551v10.7327586h3.496403v-13.8362069h.129496c2.330935 3.362069 5.309353 4.7844827 8.676259 4.7844827 7.769784 0 12.302158-5.5603448 12.302158-13.1896551-.129496-7.5-4.920863-13.06034485-12.431654-13.06034485zm-71.223022 22.75862065c-5.827338 0-8.805755-4.0086207-8.805755-9.5689655s3.23741-9.5689655 8.805755-9.5689655c5.827338 0 8.805755 4.0086207 8.805755 9.5689655s-4.014388 9.5689655-8.805755 9.5689655zm29.52518 0c-5.827338 0-8.805756-4.0086207-8.805756-9.5689655s3.237411-9.5689655 8.805756-9.5689655 8.805755 4.0086207 8.805755 9.5689655-2.978417 9.5689655-8.805755 9.5689655zm41.697842 0c-4.791367 0-8.805756-4.0086207-8.805756-9.5689655s2.978417-9.5689655 8.805756-9.5689655c5.568345 0 8.805755 4.0086207 8.805755 9.5689655s-2.978417 9.5689655-8.805755 9.5689655z"/><path d="m271.88 21h2.6v11.8h7.32v2.2h-9.92zm21.06 10.76h-7l-1.38 3.24h-2.68l6.3-14h2.56l6.32 14h-2.72zm-.86-2.04-2.64-6.12-2.62 6.12zm16.68-2c.773337.2533346 1.386664.6766637 1.84 1.27s.68 1.3299956.68 2.21c0 1.2133394-.466662 2.1499967-1.4 2.81s-2.293324.99-4.08.99h-6.96v-14h6.56c1.653342 0 2.926662.3233301 3.82.97s1.34 1.536661 1.34 2.67c0 .6933368-.159998 1.306664-.48 1.84s-.759997.9466652-1.32 1.24zm-7.32-4.68v3.86h3.68c.906671 0 1.603331-.1633317 2.09-.49s.73-.8033302.73-1.43c0-.6400032-.243331-1.1233317-.73-1.45s-1.183329-.49-2.09-.49zm4.2 9.92c2.013343 0 3.02-.6733266 3.02-2.02s-1.006657-2.02-3.02-2.02h-4.2v4.04zm12.76 2.24c-1.080005 0-2.123328-.1533318-3.13-.46s-1.80333-.7133308-2.39-1.22l.9-2.02c.573336.4533356 1.276663.8233319 2.11 1.11.833338.2866681 1.669996.43 2.51.43 1.040005 0 1.816664-.166665 2.33-.5s.77-.7733306.77-1.32c0-.400002-.143332-.7299987-.43-.99s-.649998-.4633326-1.09-.61-1.039996-.3133324-1.8-.5c-1.066672-.2533346-1.929997-.5066654-2.59-.76s-1.226664-.6499973-1.7-1.19-.71-1.2699954-.71-2.19c0-.7733372.209998-1.4766635.63-2.11s1.053329-1.1366648 1.9-1.51 1.883327-.56 3.11-.56c.853338 0 1.693329.1066656 2.52.32s1.539997.519998 2.14.92l-.82 2.02c-.613336-.3600018-1.25333-.6333324-1.92-.82s-1.31333-.28-1.94-.28c-1.026672 0-1.789998.1733316-2.29.52-.500003.3466684-.75.8066638-.75 1.38 0 .400002.143332.7266654.43.98s.649998.4533326 1.09.6 1.039996.3133324 1.8.5c1.040005.2400012 1.89333.4899987 2.56.75s1.236664.656664 1.71 1.19.71 1.2533288.71 2.16c0 .7733372-.209998 1.4733302-.63 2.1s-1.056662 1.1266648-1.91 1.5-1.893327.56-3.12.56z"/></g></svg>

<?xml version="1.0" encoding="UTF-8"?>
<svg width="325px" height="45px" viewBox="0 0 325 45" version="1.1" xmlns="http://www.w3.org/2000/svg" xmlns:xlink="http://www.w3.org/1999/xlink">
    <!-- Generator: Sketch 52.6 (67491) - http://www.bohemiancoding.com/sketch -->
    <title>labs-logo</title>
    <desc>Created with Sketch.</desc>
    <g id="Labs" stroke="none" stroke-width="1" fill="none" fill-rule="evenodd">
        <g id="Artboard-Copy" transform="translate(-14.000000, -48.000000)" fill="#4A4A4A">
            <g id="labs-logo" transform="translate(14.000000, 48.000000)">
                <path d="M46.3273381,5.04310345 C47.3633094,5.04310345 48.1402878,4.26724138 48.1402878,3.23275862 C48.1402878,2.19827586 47.3633094,1.42241379 46.3273381,1.42241379 C45.2913669,1.42241379 44.5143885,2.19827586 44.5143885,3.23275862 C44.5143885,4.26724138 45.2913669,5.04310345 46.3273381,5.04310345 L46.3273381,5.04310345 Z M70.4136691,0.129310345 L70.4136691,13.5775862 L70.2841727,13.5775862 C67.9532374,10.2155172 64.9748201,8.79310345 61.6079137,8.79310345 C53.8381295,8.79310345 49.3057554,14.3534483 49.3057554,21.9827586 C49.3057554,29.4827586 54.0971223,35.1724138 61.6079137,35.1724138 C69.3776978,35.1724138 73.9100719,29.612069 73.9100719,21.9827586 L73.9100719,0.25862069 L70.4136691,0.129310345 L70.4136691,0.129310345 Z M61.6079137,31.5517241 C56.0395683,31.5517241 52.8021583,27.5431034 52.8021583,21.9827586 C52.8021583,16.4224138 55.7805755,12.4137931 61.6079137,12.4137931 C66.3992806,12.4137931 70.4136691,16.4224138 70.4136691,21.9827586 C70.4136691,27.5431034 67.3057554,31.5517241 61.6079137,31.5517241 L61.6079137,31.5517241 Z M44.5143885,35.0431034 L48.0107914,35.0431034 L48.0107914,8.79310345 L44.5143885,8.79310345 L44.5143885,35.0431034 L44.5143885,35.0431034 Z M39.7230216,35.0431034 L43.2194245,35.0431034 L43.2194245,0.129310345 L39.7230216,0.129310345 L39.7230216,35.0431034 L39.7230216,35.0431034 Z M26.2553957,8.79310345 C18.7446043,8.79310345 13.9532374,14.3534483 13.9532374,21.9827586 L13.9532374,22.2413793 C12.6582734,21.4655172 11.1043165,20.9482759 9.42086331,20.3017241 C5.40647482,19.0086207 4.11151079,17.9741379 4.11151079,15.7758621 C4.11151079,12.8017241 6.83093525,11.5086207 9.42086331,11.5086207 C11.2338129,11.5086207 13.0467626,12.1551724 13.9532374,13.8362069 L16.4136691,11.7672414 C14.6007194,9.56896552 12.2697842,8.79310345 9.42086331,8.79310345 C5.01798561,8.79310345 0.874100719,11.25 0.874100719,16.0344828 C0.874100719,20.1724138 3.59352518,21.7241379 7.08992806,22.887931 C11.4928058,24.3103448 13.5647482,24.9568966 13.5647482,27.9310345 C13.5647482,30.7758621 10.7158273,32.3275862 8.12589928,32.3275862 C5.92446043,32.3275862 3.85251799,31.4224138 2.81654676,29.4827586 L0.226618705,31.5517241 C2.03956835,34.137931 5.14748201,35.0431034 7.99640288,35.0431034 C11.6223022,35.0431034 15.118705,33.4913793 16.2841727,30.387931 C18.4856115,33.2327586 21.852518,35.0431034 26.2553957,35.0431034 C34.0251799,35.0431034 38.557554,29.4827586 38.557554,21.8534483 C38.557554,14.3534483 33.7661871,8.79310345 26.2553957,8.79310345 L26.2553957,8.79310345 Z M26.2553957,31.5517241 C20.4280576,31.5517241 17.4496403,27.5431034 17.4496403,21.9827586 C17.4496403,16.4224138 20.6870504,12.4137931 26.2553957,12.4137931 C31.823741,12.4137931 35.0611511,16.4224138 35.0611511,21.9827586 C35.0611511,27.5431034 32.0827338,31.5517241 26.2553957,31.5517241 L26.2553957,31.5517241 Z" id="Shape"></path>
                <path d="M160.284173,21.2068966 C160.284173,14.3534483 155.881295,8.79310345 148.241007,8.6637931 C145.003597,8.6637931 142.154676,9.82758621 139.953237,11.7672414 L139.953237,9.69827586 L132.830935,9.69827586 L132.830935,2.97413793 L129.334532,2.97413793 L129.334532,9.69827586 L123.766187,9.69827586 L123.766187,11.7672414 C121.694245,9.82758621 118.845324,8.6637931 115.348921,8.6637931 C111.982014,8.6637931 109.133094,9.82758621 107.061151,11.7672414 L107.061151,9.69827586 L99.9388489,9.69827586 L99.9388489,2.97413793 L96.1834532,2.97413793 L96.1834532,9.69827586 L91.2625899,9.69827586 C89.9676259,9.05172414 88.5431655,8.92241379 86.9892086,8.92241379 C82.5863309,8.92241379 78.442446,11.3793103 78.442446,16.1637931 C78.442446,20.3017241 81.1618705,21.8534483 84.6582734,23.0172414 C89.0611511,24.4396552 91.1330935,25.0862069 91.1330935,28.0603448 C91.1330935,30.9051724 88.2841727,32.4568966 85.6942446,32.4568966 C83.4928058,32.4568966 81.4208633,31.5517241 80.3848921,29.612069 L77.794964,31.6810345 C79.4784173,34.137931 82.5863309,35.1724138 85.4352518,35.1724138 C89.9676259,35.1724138 94.2410072,32.8448276 94.2410072,27.9310345 C94.2410072,23.0172414 90.6151079,21.7241379 86.7302158,20.5603448 C82.7158273,19.2672414 81.4208633,18.2327586 81.4208633,16.0344828 C81.4208633,13.0603448 84.1402878,11.8965517 86.7302158,11.8965517 C88.5431655,11.8965517 90.3561151,12.5431034 91.2625899,14.2241379 L92.4280576,13.1896552 L96.1834532,13.1896552 L96.1834532,28.4482759 C96.1834532,33.362069 99.1618705,35.4310345 103.823741,35.4310345 C105.895683,35.4310345 107.708633,35.0431034 109.521583,34.2672414 C111.07554,35.0431034 113.017986,35.4310345 115.089928,35.4310345 C118.456835,35.4310345 121.435252,34.0086207 123.766187,30.6465517 L123.895683,30.6465517 L123.895683,35.0431034 L127.392086,35.0431034 L127.392086,21.8534483 C127.392086,18.2327586 126.356115,15.1293103 124.543165,12.8017241 L129.205036,12.8017241 L129.205036,28.0603448 C129.205036,32.9741379 132.183453,35.0431034 136.845324,35.0431034 C138.917266,35.0431034 140.859712,34.6551724 142.672662,33.75 C144.356115,34.5258621 146.298561,35.0431034 148.5,35.0431034 C152.643885,35.0431034 156.269784,33.4913793 159.248201,29.7413793 L156.528777,27.5431034 C155.104317,29.7413793 152.255396,31.8103448 148.5,31.8103448 C143.579137,31.8103448 139.694245,27.8017241 139.305755,22.887931 L160.154676,22.887931 L160.284173,21.2068966 L160.284173,21.2068966 L160.284173,21.2068966 Z M100.845324,30.6465517 C100.068345,29.8706897 99.6798561,28.7068966 99.6798561,27.1551724 L99.6798561,12.8017241 L105.895683,12.8017241 C103.953237,15.1293103 102.917266,18.2327586 102.917266,21.8534483 C102.917266,25.7327586 104.082734,29.0948276 106.413669,31.5517241 C105.636691,31.8103448 104.859712,31.8103448 103.953237,31.8103448 C102.78777,31.8103448 101.622302,31.4224138 100.845324,30.6465517 L100.845324,30.6465517 Z M115.219424,31.5517241 C109.392086,31.5517241 106.413669,27.5431034 106.413669,21.9827586 C106.413669,16.4224138 109.651079,12.4137931 115.219424,12.4137931 C121.046763,12.4137931 124.02518,16.4224138 124.02518,21.9827586 C124.02518,27.5431034 119.881295,31.5517241 115.219424,31.5517241 L115.219424,31.5517241 Z M139.564748,31.5517241 C138.78777,31.8103448 137.881295,31.9396552 136.97482,31.9396552 C135.809353,31.9396552 134.773381,31.5517241 133.996403,30.6465517 C133.219424,29.8706897 132.830935,28.7068966 132.830935,27.1551724 L132.830935,12.8017241 L139.046763,12.8017241 C136.97482,15.1293103 135.809353,18.2327586 135.809353,21.8534483 C135.679856,25.7327586 137.104317,29.0948276 139.564748,31.5517241 L139.564748,31.5517241 Z M139.435252,20.0431034 C139.435252,15.9051724 143.579137,12.0258621 148.241007,12.0258621 C153.291367,12.0258621 156.399281,15.2586207 156.399281,20.0431034 L139.435252,20.0431034 L139.435252,20.0431034 Z" id="Shape"></path>
                <path d="M248.341727,8.79310345 C244.586331,8.79310345 241.607914,10.0862069 239.535971,12.1551724 L239.535971,8.79310345 L236.039568,8.79310345 L236.039568,23.2758621 C236.039568,28.8362069 233.967626,31.9396552 228.658273,31.9396552 C223.348921,31.9396552 221.276978,28.8362069 221.276978,23.2758621 L221.276978,8.79310345 L217.780576,8.79310345 L217.780576,15.9051724 C215.838129,11.637931 211.953237,8.79310345 206.643885,8.79310345 C203.92446,8.79310345 201.464029,9.56896552 199.521583,10.9913793 L199.910072,9.18103448 C199.133094,8.92241379 198.356115,8.92241379 197.320144,8.92241379 C194.082734,8.92241379 189.679856,9.82758621 187.348921,14.0948276 C185.276978,10.862069 181.780576,8.92241379 177.248201,8.92241379 C169.73741,8.92241379 164.946043,14.4827586 164.946043,22.112069 C164.946043,29.612069 169.478417,35.3017241 177.248201,35.3017241 C180.615108,35.3017241 183.593525,33.8793103 185.92446,30.5172414 L186.053957,30.5172414 L186.053957,30.7758621 L186.053957,30.7758621 C186.053957,37.112069 181.651079,40.9913793 176.600719,40.9913793 C172.845324,40.9913793 169.996403,38.9224138 168.571942,36.7241379 L165.852518,38.9224138 C168.830935,42.6724138 172.456835,44.2241379 176.600719,44.2241379 C183.723022,44.2241379 189.420863,39.5689655 189.55036,30.9051724 L189.55036,30.9051724 L189.55036,20.5603448 C189.55036,16.5517241 191.233813,12.5431034 197.190647,12.5431034 L197.967626,12.5431034 C195.766187,14.8706897 194.471223,18.2327586 194.471223,22.112069 C194.471223,29.612069 199.003597,35.3017241 206.773381,35.3017241 C212.471223,35.3017241 216.356115,32.3275862 218.039568,27.9310345 C218.946043,32.7155172 222.442446,35.3017241 228.78777,35.3017241 C231.895683,35.3017241 234.356115,34.6551724 236.169065,33.362069 L236.169065,44.0948276 L239.665468,44.0948276 L239.665468,30.2586207 L239.794964,30.2586207 C242.125899,33.6206897 245.104317,35.0431034 248.471223,35.0431034 C256.241007,35.0431034 260.773381,29.4827586 260.773381,21.8534483 C260.643885,14.3534483 255.852518,8.79310345 248.341727,8.79310345 L248.341727,8.79310345 Z M177.118705,31.5517241 C171.291367,31.5517241 168.31295,27.5431034 168.31295,21.9827586 C168.31295,16.4224138 171.55036,12.4137931 177.118705,12.4137931 C182.946043,12.4137931 185.92446,16.4224138 185.92446,21.9827586 C185.92446,27.5431034 181.910072,31.5517241 177.118705,31.5517241 L177.118705,31.5517241 Z M206.643885,31.5517241 C200.816547,31.5517241 197.838129,27.5431034 197.838129,21.9827586 C197.838129,16.4224138 201.07554,12.4137931 206.643885,12.4137931 C212.21223,12.4137931 215.44964,16.4224138 215.44964,21.9827586 C215.44964,27.5431034 212.471223,31.5517241 206.643885,31.5517241 L206.643885,31.5517241 Z M248.341727,31.5517241 C243.55036,31.5517241 239.535971,27.5431034 239.535971,21.9827586 C239.535971,16.4224138 242.514388,12.4137931 248.341727,12.4137931 C253.910072,12.4137931 257.147482,16.4224138 257.147482,21.9827586 C257.147482,27.5431034 254.169065,31.5517241 248.341727,31.5517241 L248.341727,31.5517241 Z" id="Shape"></path>
                <path d="M271.88,21 L274.48,21 L274.48,32.8 L281.8,32.8 L281.8,35 L271.88,35 L271.88,21 Z M292.94,31.76 L285.94,31.76 L284.56,35 L281.88,35 L288.18,21 L290.74,21 L297.06,35 L294.34,35 L292.94,31.76 Z M292.08,29.72 L289.44,23.6 L286.82,29.72 L292.08,29.72 Z M308.76,27.72 C309.533337,27.9733346 310.146664,28.3966637 310.6,28.99 C311.053336,29.5833363 311.28,30.3199956 311.28,31.2 C311.28,32.4133394 310.813338,33.3499967 309.88,34.01 C308.946662,34.6700033 307.586676,35 305.8,35 L298.84,35 L298.84,21 L305.4,21 C307.053342,21 308.326662,21.3233301 309.22,21.97 C310.113338,22.6166699 310.56,23.506661 310.56,24.64 C310.56,25.3333368 310.400002,25.946664 310.08,26.48 C309.759998,27.013336 309.320003,27.4266652 308.76,27.72 Z M301.44,23.04 L301.44,26.9 L305.12,26.9 C306.026671,26.9 306.723331,26.7366683 307.21,26.41 C307.696669,26.0833317 307.94,25.6066698 307.94,24.98 C307.94,24.3399968 307.696669,23.8566683 307.21,23.53 C306.723331,23.2033317 306.026671,23.04 305.12,23.04 L301.44,23.04 Z M305.64,32.96 C307.653343,32.96 308.66,32.2866734 308.66,30.94 C308.66,29.5933266 307.653343,28.92 305.64,28.92 L301.44,28.92 L301.44,32.96 L305.64,32.96 Z M318.4,35.2 C317.319995,35.2 316.276672,35.0466682 315.27,34.74 C314.263328,34.4333318 313.46667,34.0266692 312.88,33.52 L313.78,31.5 C314.353336,31.9533356 315.056663,32.3233319 315.89,32.61 C316.723338,32.8966681 317.559996,33.04 318.4,33.04 C319.440005,33.04 320.216664,32.873335 320.73,32.54 C321.243336,32.206665 321.5,31.7666694 321.5,31.22 C321.5,30.819998 321.356668,30.4900013 321.07,30.23 C320.783332,29.9699987 320.420002,29.7666674 319.98,29.62 C319.539998,29.4733326 318.940004,29.3066676 318.18,29.12 C317.113328,28.8666654 316.250003,28.6133346 315.59,28.36 C314.929997,28.1066654 314.363336,27.7100027 313.89,27.17 C313.416664,26.6299973 313.18,25.9000046 313.18,24.98 C313.18,24.2066628 313.389998,23.5033365 313.81,22.87 C314.230002,22.2366635 314.863329,21.7333352 315.71,21.36 C316.556671,20.9866648 317.593327,20.8 318.82,20.8 C319.673338,20.8 320.513329,20.9066656 321.34,21.12 C322.166671,21.3333344 322.879997,21.639998 323.48,22.04 L322.66,24.06 C322.046664,23.6999982 321.40667,23.4266676 320.74,23.24 C320.07333,23.0533324 319.42667,22.96 318.8,22.96 C317.773328,22.96 317.010002,23.1333316 316.51,23.48 C316.009997,23.8266684 315.76,24.2866638 315.76,24.86 C315.76,25.260002 315.903332,25.5866654 316.19,25.84 C316.476668,26.0933346 316.839998,26.2933326 317.28,26.44 C317.720002,26.5866674 318.319996,26.7533324 319.08,26.94 C320.120005,27.1800012 320.97333,27.4299987 321.64,27.69 C322.30667,27.9500013 322.876664,28.346664 323.35,28.88 C323.823336,29.413336 324.06,30.1333288 324.06,31.04 C324.06,31.8133372 323.850002,32.5133302 323.43,33.14 C323.009998,33.7666698 322.373338,34.2666648 321.52,34.64 C320.666662,35.0133352 319.626673,35.2 318.4,35.2 Z" id="LABS"></path>
            </g>
        </g>
    </g>
</svg>
